X:1
T:He Is So Precious to Me
T:He Is So Precious to Me
T:Charles Hutchinson Gabriel
T:Charles Hutchinson Gabriel, 1902
T:Public Domain Courtesy of the Cyber Hymnal™
T:Public Domain Courtesy of the Cyber Hymnal™
C:Charles Hutchinson Gabriel
Z:Public Domain
Z:Courtesy of the Cyber Hymnal™
%%score ( 1 2 ) ( 3 4 )
L:1/8
Q:1/4=160
M:3/4
K:G
V:1 treble 
V:2 treble 
V:3 bass 
V:4 bass 
V:1
 [B,D]2 | [DB]2 [DB]2 [DB]2 | [Ec]2 [DB]2 [^DA]2 | [EA]2 [EG]2 [CE]2 | [B,D]4 [B,D]2 | %5
w: 1.~So|pre- cious is|Je- sus, my|Sav- ior, my|king; His|
w: 2.~He|stood at my|heart’s door ’mid|sun- shine and|rain, And|
w: 3.~I|stand on the|mount- ain of|bless- ing at|last, No|
w: 4.~I|praise Him be-|cause He ap-|point- ed a|place Where|
 [CF]2 [CF]2 [CF]2 | [CF]2 [CE]2 [DF]2 | [DG]2 [DA]2 [DB]2 | [DA]4 D2 | [DB]2 [DB]2 [DB]2 | %10
w: praise all the|day long with|rap- ture I|sing. To|Him in my|
w: pa- tient- ly|wait- ed an|en- trance to|gain. What|shame that so|
w: cloud in the|hea- vens a|sha- dow to|cast, His|smile is up-|
w: some day, through|faith in His|won- der- ful|grace, I|know I shall|
 [Ec]2 [DB]2 [CA]2 | [B,G]2 [CA]2 [DB]2 | [Ec]4 !fermata![Ec]2 | [DB]2 [B,D]2 [B,G]2 | %14
w: weak- ness for|strength I can|cling, For|He is so|
w: long He en-|treat- ed in|vain, For|He is so|
w: on me; the|val- ley is|past, For|He is so|
w: see Him, shall|look on His|face, For|He is so|
 [CA] [DB]3 [CA]2 | [B,G]6- | [B,G]4 ||"^Refrain" !fermata![DB]2 | [B,D]2 [B,E]2 [B,F]2 | %19
w: pre- cious to|me.||||
w: pre- cious to|me.||||
w: pre- cious to|me.||||
w: pre- cious to|me.||||
 [B,G] [CA]3 [B,G]2 | B6- | [DB]4 !fermata![Fd]2 | [DA]2 [DA]2 [DA]2 | [DA] [DB]3 [Dc]2 | B6- | %25
w: ||||||
w: ||||||
w: ||||||
w: ||||||
 [DB]4 [DB]2 | [Gd]2 [Ge]2 [Gd]2 | [GB]4 [FA][FB] | [EG]2 [FA]2 [=FB]2 | [Ec]4 !fermata![Ec]2 | %30
w: |||||
w: |||||
w: |||||
w: |||||
 [DB]2 [B,D]2 [B,G]2 | [CA] [DB]3 [CA]2 | [B,G]6- | [B,G]4 |] %34
w: ||||
w: ||||
w: ||||
w: ||||
V:2
 x2 | x6 | x6 | x6 | x6 | x6 | x6 | x6 | x4 D2 | x6 | x6 | x6 | x6 | x6 | x6 | x6 | x4 || x2 | x6 | %19
 x6 | D G3 E2 | x6 | x6 | x6 | D G3 E2 | x6 | x6 | x6 | x6 | x6 | x6 | x6 | x6 | x4 |] %34
V:3
 [G,,G,]2 | [G,,G,]2 [G,,G,]2 [G,,G,]2 | [G,,G,]2 [G,,G,]2 [B,,G,]2 | [C,G,]2 [C,G,]2 [C,G,]2 | %4
w: ~|~ ~ ~|~ ~ ~|~ ~ ~|
 [G,,G,]4 [G,,G,]2 | [A,,D,]2 [D,A,]2 [D,A,]2 | [D,A,]2 [D,G,]2 [C,A,]2 | %7
w: ~ ~|~ ~ ~|~ ~ ~|
 [B,,G,]2 [A,,F,]2 [G,,G,]2 | [D,F,]4 [D,F,]2 | [G,,G,]2 [G,,G,]2 [G,,G,]2 | %10
w: ~ ~ ~|~ ~|~ ~ ~|
 [G,,G,]2 [G,,G,]2 [G,,D,]2 | [G,,D,]2 [G,,D,]2 [G,,G,]2 | [C,G,]4 !fermata![C,G,]2 | %13
w: ~ ~ ~|~ ~ ~|~ ~|
 [D,G,]2 [D,G,]2 [D,G,]2 | [D,F,] [D,F,]3 [D,F,]2 | [G,,G,]6- | [G,,G,]4 || !fermata![G,,G,]2 | %18
w: ~ ~ ~|~ ~ ~|~||For|
 [G,,G,]2 [G,,G,]2 [G,,G,]2 | [G,,D,] [G,,D,]3 [G,,D,]2 | [G,,G,] [G,,G,]3 [G,,G,]2 | %21
w: He is so|pre- cious, so|pre- cious to|
 [G,,G,]4 !fermata![D,A,]2 | [D,F,]2 [D,F,]2 [D,F,]2 | [D,F,] [D,G,]3 [D,A,]2 | %24
w: me; For|He is so|pre- cious, so|
 [G,,G,] [G,,G,]3 [G,,G,]2 | [G,,G,]4 G,2 | [G,B,]2 [G,C]2 [G,B,]2 | [G,D]4 [D,C][D,C] | %28
w: pre- cious to|me; ’Tis|hea- ven be-|low, my Re-|
 [E,B,]2 [D,D]2 G,2 | [C,G,]4 !fermata![C,G,]2 | [D,G,]2 [D,G,]2 [D,G,]2 | [D,F,] [D,F,]3 [D,F,]2 | %32
w: deem- er to|know, For|He is so|pre- cious to|
 [G,,D,]6- | [G,,D,]4 |] %34
w: me.||
V:4
 x2 | x6 | x6 | x6 | x6 | x6 | x6 | x6 | x6 | x6 | x6 | x6 | x6 | x6 | x6 | x6 | x4 || x2 | x6 | %19
 x6 | x6 | x6 | x6 | x6 | x6 | x6 | x6 | x6 | x4 G,2 | x6 | x6 | x6 | x6 | x4 |] %34

